X:30
T:Pollonesse no 30
T:ur Andreas Dahlgrens notbok
N:
C:Trad.
B:Andreas Dahlgrens Notbok
D:
Z:Konverterad till abc av Olle Paulsson 170414
Z:http://fmk.musikverket.se/browselarge.php?lang=sw&katalogid=Ma+7&bildnr=00014
R:Polska
M:3/4
L:1/8
K:G
ggGGAc |BA/B/ G2 G,2 | gfed^cd | e/f/e/^c/ d2 D2:|
|:(dg)(gd)(dB) | cc/d/ edcB | BddBBG | FF/G/ AGFE | 
dggbbg | ff/g/ ag/f/ g2 | cBAGFG | A/B/A/F/ G2 G,2:|

